X:503
T:Earl’s Favourite. RH.503
R:jig
S:Rev.R.Harrison’s MS,c1815,Cumbria
O:England
A:Temple Sowerby,Cumbria
Z:vmp.Simon Wilson. Review PJH, 2008.
M:6/8
L:1/8
Q:3/8=110
K:D
A|d>fd B>dB|AFA d2A|B2b baf|f>ed e2f|\
d>fd B>dB|AFA d2A|B2b a>ba/g/|f3 d2:|!
|:e|f2a a2b|afd afd|g2b b2c’|bge bge|\
f2a a2b|afd afd|B2b a>ba/g/|f3 d2:|!
|:e|fdA BdB|AFA BdB|AFA Bba|fed efa|\
fdA BdB|AFA BdB|AFA Bba|f>gf/e/ d2:|!
|:e|f/g/ab afd|fdf afd|g/a/c’d’ bge|geg bge|\
f/g/ab afd|fab c’af|afd Bba|f>gf/e/ d2:|

